assets/readmore.svg

<?xml version="1.0" encoding="utf-8"?>
<!-- Generator: Adobe Illustrator 24.1.0, SVG Export Plug-In . SVG Version: 6.00 Build 0)  -->
<svg version="1.1" id="Layer_1" xmlns="http://www.w3.org/2000/svg" xmlns:xlink="http://www.w3.org/1999/xlink" x="0px" y="0px"
	 viewBox="0 0 20 20" style="enable-background:new 0 0 20 20;" xml:space="preserve">
<style type="text/css">
	.st0{fill:none;stroke:#C5A059;stroke-width:2;stroke-linecap:round;stroke-linejoin:round;}
</style>
<path class="st0" d="M10.8,9.2l6.8-6.8"/>
<path class="st0" d="M18.3,5.7v-4h-4"/>
<path class="st0" d="M9.2,1.7H7.5c-4.2,0-5.8,1.7-5.8,5.8v5c0,4.2,1.7,5.8,5.8,5.8h5c4.2,0,5.8-1.7,5.8-5.8v-1.7"/>
</svg>

<?xml version="1.0" encoding="UTF-8" standalone="no"?>
<!DOCTYPE svg PUBLIC "-//W3C//DTD SVG 1.1//EN" "http://www.w3.org/Graphics/SVG/1.1/DTD/svg11.dtd">
<svg width="100%" height="100%" viewBox="0 0 20 20" version="1.1" xmlns="http://www.w3.org/2000/svg" xmlns:xlink="http://www.w3.org/1999/xlink" xml:space="preserve" xmlns:serif="http://www.serif.com/" style="fill-rule:evenodd;clip-rule:evenodd;stroke-linecap:round;stroke-linejoin:round;">
    <path d="M10.8,9.2L17.6,2.4" style="fill:none;fill-rule:nonzero;stroke:rgb(244,241,238);stroke-width:2px;"/>
    <path d="M18.3,5.7L18.3,1.7L14.3,1.7" style="fill:none;fill-rule:nonzero;stroke:rgb(244,241,238);stroke-width:2px;"/>
    <path d="M9.2,1.7L7.5,1.7C3.3,1.7 1.7,3.4 1.7,7.5L1.7,12.5C1.7,16.7 3.4,18.3 7.5,18.3L12.5,18.3C16.7,18.3 18.3,16.6 18.3,12.5L18.3,10.8" style="fill:none;fill-rule:nonzero;stroke:rgb(244,241,238);stroke-width:2px;"/>
</svg>
